X: 50
T: The Mason's Apron
S: printed page in Concord Slow Scottish Session collection
Z: 2015 John Chambers <jc:trillian.mit.edu>
R: reel
M: C|
L: 1/8
K: A
L:1/8
   (ed) |\
"A"cA~A2 ABAF | "A"EFAB dcBA | "Bm"dB~B2 BcBA | "Bm"Bcde gfed |
"A"cA~A2 ABAF | "A"EFAB dcBA | "D"Bcde "Bm"fefa | "E7"~A2cB "A"A2 :|
|: (ed) |\
"A"cAeA fAeA | "A"cAeA fedc | "Bm"dBfB gBfB | "Bm"dBfB "E7"gfed |
"A"cAeA fAeA | "A"cAeA fedc | "D"Bcde "Bm"fefa | "E7"~A2cB "A"A2 :|
